app/dist/common/images/ferratum-oyj.svg

<svg height="18" viewBox="0 0 18 18" width="18" xmlns="http://www.w3.org/2000/svg"><path d="m0 0h18v18h-18z" fill="#f0f3fa"/><path d="m14 12v-2.33l-2.16-3.67-2.16 3.66-2.15-3.66-3.53 6h1.37l2.16-3.62 1.47 2.45-.7 1.17h1.37v-.01l.01.01v-.02l2.15-3.6z" fill="#85d6c1"/><path d="m11.84 8.38-.68 1.13 1.47 2.49h1.37zm-5.7-2.38-2.14 3.67v2.33l3.53-6h-1.4zm4.3 0-2.14 3.67-.77-1.3-.69 1.16 1.47 2.47 3.53-6z"/></svg>

<!-- by TradingView --><svg width="18" height="18" viewBox="0 0 18 18" xmlns="http://www.w3.org/2000/svg"><path fill="#F0F3FA" d="M0 0h18v18H0z"/><path d="M14 12V9.67L11.84 6 9.68 9.66 7.53 6 4 12h1.37l2.16-3.62L9 10.83 8.3 12h1.37v-.01l.01.01v-.02l2.15-3.6L14 12Z" fill="#85D6C1"/><path d="m11.84 8.38-.68 1.13L12.63 12H14l-2.16-3.62ZM6.14 6 4 9.67V12l3.53-6h-1.4ZM10.44 6 8.3 9.67l-.77-1.3-.69 1.16L8.31 12l3.53-6h-1.4Z"/></svg>
